X:345
T: Sackow's Jig
T: Trip It Upstairs
M: 6/8
L: 1/8
R: Jig
K: D
FAA GBB|FAd fed|cBc ABc|dfe dBA|
FAA GBB|FAd fed|cBc ABc|dfe d3 :|
dBB fBB|fgf fed|cAA eAA|efe edc|
dBB fBB|fgf fed|cBc ABc|dfe d3 :|
